configs/network-icons/zksync-short-dark.svg

<svg width="30" height="30" viewBox="0 0 30 30" fill="none" xmlns="http://www.w3.org/2000/svg">
<path fill-rule="evenodd" clip-rule="evenodd" d="M30 15.4754L21.4986 7V13.207L13.0575 19.4216L21.4986 19.4274V23.9508L30 15.4754Z" fill="white"/>
<path fill-rule="evenodd" clip-rule="evenodd" d="M0 15.4754L8.50534 23.9508V17.8094L16.8885 11.5907L8.50534 11.585V7L0 15.4754Z" fill="white"/>
</svg>

<svg xmlns="http://www.w3.org/2000/svg" fill="none" viewBox="0 0 30 30">
  <path fill="#fff" fill-rule="evenodd" d="M30 15.475 21.499 7v6.207l-8.441 6.215 8.44.005v4.524L30 15.475Zm-30 0 8.505 8.476v-6.142l8.383-6.218-8.383-.006V7L0 15.475Z" clip-rule="evenodd"/>
</svg>
